assets/templates.svg

<?xml version="1.0" encoding="UTF-8" standalone="no"?>
<svg width="287px" height="255px" viewBox="0 0 287 255" version="1.1" xmlns="http://www.w3.org/2000/svg" xmlns:xlink="http://www.w3.org/1999/xlink" xmlns:sketch="http://www.bohemiancoding.com/sketch/ns">
    <!-- Generator: Sketch 3.3.1 (12002) - http://www.bohemiancoding.com/sketch -->
    <title>templates_mo</title>
    <desc>Created with Sketch.</desc>
    <defs></defs>
    <g id="Page-1" stroke="none" stroke-width="1" fill="none" fill-rule="evenodd" sketch:type="MSPage">
        <g id="templates_mo" sketch:type="MSLayerGroup">
            <g id="Page-1" sketch:type="MSShapeGroup">
                <g id="templates_mo">
                    <path d="M0.672279839,184.781666 L159.679524,254.677465 L286.32772,182.218334 L127.320476,112.322535 L0.672279839,184.781666 Z M7.28287763,184.513997 L159.512536,251.321935 L279.816416,182.543294 L127.484375,115.674642 L7.28287763,184.513997 Z" id="Path" fill="#204489"></path>
                    <path d="M0.672279839,128.781666 L159.679524,198.677465 L286.32772,126.218334 L127.320476,56.322535 L0.672279839,128.781666 Z M7.28287763,128.513997 L159.512536,195.321935 L279.816416,126.543294 L127.484375,59.6746419 L7.28287763,128.513997 Z" id="Path-Copy-2" fill="#18BFD6"></path>
                    <path d="M0.672279839,72.7816655 L159.679524,142.677465 L286.32772,70.2183345 L127.320476,0.32253504 L0.672279839,72.7816655 Z M7.28287763,72.5139974 L159.512536,139.321935 L279.816416,70.5432943 L127.484375,3.67464191 L7.28287763,72.5139974 Z" id="Path-Copy-3" fill="#FFFFFF"></path>
                </g>
            </g>
        </g>
    </g>
</svg>

<svg width="287" height="255" viewBox="0 0 287 255" xmlns="http://www.w3.org/2000/svg"><title>templates_mo</title><g fill="none" fill-rule="evenodd"><path d="M.672 184.782l159.008 69.895 126.648-72.459-159.008-69.895L.672 184.782zm6.61-.268l152.23 66.808 120.304-68.779-152.332-66.868L7.283 184.514z" fill="#204489"/><path d="M.672 128.782l159.008 69.895 126.648-72.459L127.32 56.323.672 128.782zm6.61-.268l152.23 66.808 120.304-68.779-152.332-66.868L7.283 128.514z" fill="#18BFD6"/><path d="M.672 72.782l159.008 69.895 126.648-72.459L127.32.323.672 72.782zm6.61-.268l152.23 66.808 120.304-68.779L127.484 3.675 7.283 72.514z" fill="#FFF"/></g></svg>
